X:1
T:Children’s Offerings, 77.5 D
T:Children’s Offerings, 77.5 D
T:John Stainer, 1875
T:Public Domain Courtesy of the Cyber Hymnal™
C:John Stainer, 1875
Z:Public Domain
Z:Courtesy of the Cyber Hymnal™
%%score ( 1 2 ) 3
L:1/8
Q:1/4=90
M:6/8
K:Eb
V:1 treble 
V:2 treble 
V:3 bass 
V:1
 ([GB][EG])[Ac] [GB]2 [FA] | [EG]2 [FA] ([EG]2 [DF]) | [GB][EG][Ac] [GB]2 [FA] | %3
 [EG]2 [F=A] B2 [Ac] | [FBd][Bdf][Gce] ([Bd][ce])[E=Ac] | [DB]6 | c2 [EA] [EGc] [Ff]2 [FAc] | %7
 [GB][FA][=EG] [FA]3 | B2 [DG] [DFB] [Ee]2 [GB] | [FA][EG][DF] ([EG]2 [FA]) | B2 [CEc] (FG)[B,DA] | %11
 [B,EG]6 |] %12
V:2
 x6 | x6 | x6 | x3 F G x | x2 F2 x2 | x6 | [E-G] x6 | x6 | [D-F] x6 | x6 | GF [B,E]2 x2 | x6 |] %12
V:3
 E,3 (E,G,)B, | C2 A, B,3 | E,3 B,,C,D, | E,3 (D,2 F,) | (B,D,)E, F,2 F, | (B,F,D, B,,3) | %6
 B,2 B, A,2 A, x | (B,C)C, F,3 | A,2 A, G,2 G,, x | A,,2 B,, (E,C,A,,) | G,,2 A,, B,,2 B,, | %11
 E,,6 |] %12

